X:1
T:Jayme myeulx boire
T:Pierre Certon
T:Source : Livre XX de 28 chansons nouvelles à 4 parties---Paris---P.Attaingnant---1546. Editor ; André Vierendeels (22/07/18) Notes : Original clefs : C1, C3, C4, F4 Original note values have been halved Editorial accidentals above the staff Square bracket indicates ligature    
T:Jayme myeulx boire
T:©
T:©
T:©
C:Pierre Certon
Z:©
%%score [ 1 [ 2 3 ] 4 ]
L:1/8
Q:1/4=120
M:3/4
K:F
V:1 treble nm="Alto" snm="A"
V:2 treble-8 nm="Tenor 1" snm="T 1"
V:3 treble-8 nm="Tenor 2" snm="T 2"
V:4 bass nm="Bass" snm="B"
V:1
 D3 D D2 | D4 F2 | F2 F4 | E4 z2 | G2 G2 G2 | B3 A G2 | F4 E2 |1[M:2/4] F4 :|2[M:2/2] F2 F2 c3 B || %9
w: Jay- me myeulx|boi- re'au|pré bon-|ne'eau,|qu'à la ta-|ver- * ne|mau- vais|vin,|seau, là iay trou-|
w: El- le me|faict l'es-|prit di-|vin,|et si n'en|ay pas beu|ung _|_||
 AGAA B2 A2 | z8 | z2 c2 cc c2 | A2 GG A2 c2 | BA A4 G2 |[M:3/2] A12 | z8 z4 | z4 z4 A4 | A8 G4 | %18
w: vé Ca- the- ri- net- te,||ie la bai- se,|ie la bai- s'en en|sa bou- chet- *|te,||et|quant i'y|
w: |||||||||
 F8 A4 | A8 G4 | G8 F4 | E8 D4 |[M:2/2] C4 F2 FF | E2 z2 c2 cc | AAFF E2 Cc | AA F2 E2 z c | %26
w: voys, i'y|voys tout|beau, i'y|voys tout|beau, car sa mè-|re, car sa mè-|re cri- 'et tem- pè- ste, cri-|'et tem- pe- ste, cri-|
w: ||||||||
 AA F2 E2 E2 | D2 F2 G2 A2 | B2 B2 A2 B2- | BA A4 G2 | A4 z2 A2 | G2 c2 c3 B | A2 G2 F2 E2 | %33
w: 'et tem- pè- ste et|se rompt iour et|nuict la tes- *||te, mais|ie n'en com- pte|ung nou- veau, mais|
w: |||||||
 F2 F2 E2 E2 | D2 D2 C2 c2 | c2 c2 B2 A2- | A2 G4 F2- | F2 E2 F4- | F8 |] %39
w: ie n'en com- pte|ung nou- veau, mais|ie n'en com- pte|_ ung nou-|* * veau.|_|
w: ||||||
V:2
 B3 B B2 | B4 c2 | d2 d4 | G4 z2 | e2 e2 e2 |"^b" f4 e2 | c2 c4 |1[M:2/4] A4 :|2 %8
w: Jay- me myeulx|boi- re'au|pré bon-|ne'eau,|qu'à la ta-|ver- ne|mau- vais|vin,|
w: El- le me|faict l'es-|prit di-|vin,|et si n'en|ay pas|beu ung|_|
[M:2/2] A4 c2 f2- || fedc de f2 | e2 z2 z4 | f2 ff f2 f2 | ffee f4- | f2 f2 d4 |[M:3/2] d8 z4 | %15
w: seau, là iay|_ trou- né Ca- the- ri- net-|te,|ie la bai- se, ie|la bai- s'en sa bou-|* chet- *|te,|
w: |||||||
 z8 z4 | z4 z4 f4 | f8 e4 | f8 c4 | c8 e4 | e8 d4 | c8 B4 |[M:2/2] A4 z2 c2 | ccGG GG A2 | %24
w: |et|quant i'y|voys, i'y|voys tout|beau, i'y|voys tout|beau, car|sa mè- re cri- 'et tem- pe-|
w: |||||||||
 AAAB c2 c2 | z AAB c2 c2 | z AAB c2 cc | B2 d2 d2 f2 | f6 f2 | f4 d4 | z2 d2 c2 f2 | edef g2 f2 | %32
w: ste, cri- 'et tem- pe- ste,|cri- 'et tem- pe- ste,|cri- 'et tem- pe- ste et|se rompt iour et|nuict la|tes- te,|mais ie n'en|com- * * * * pte|
w: ||||||||
 f2 e2 c2 c2 | A3 B c2 c2 | A2 A2 A4 | z2 c2 d2 f2 | e2 e2 d2 B2 | c4 A4- | A8 |] %39
w: ung nou- veau, mais|ie n'en com- pte|ung nou- veau,|mais ie n'en|com- pte ung nou-|* veau.|_|
w: |||||||
V:3
 F3 F F2 | F4 A2 | B2 A3 B | c4 z2 | c2 c2 c2 | d3 c B2 | A2 G4 |1[M:2/4] F4 :|2[M:2/2] F8 || %9
w: Jay- me myeulx|boi- re'au|pré bon- *|ne'eau,|qu'à la ta-|ver- * ne|mau- vais|vin,|seau,|
w: El- le me|faict l'es-|rit di- *|vin,|et si n'en|ay pas beu|ung _|_||
 z4 z2 F2 | c3 B AGAA | B2 A2 z2 F2 | FF c2 c2 cc | ddcc B4 |[M:3/2] A8 A4 | A8 G4 | F8 F4 | %17
w: là|iay trou- vé Ca- the- ri-|net- te ie|la bai- se, ie la bai-|s'en sa bou- chet- *|te, et|quant i'y|voys, et|
w: ||||||||
 F8 C4 | F8 z4 | z4 z4 c4 | c8 A4 | A8 F4 |[M:2/2] F4 C4 | C4 z2 E2 | EEFF GG A2 | F2 z F GG A2 | %26
w: quant i'y|voys|i'y|voys tout|beau, i'y|voys tout|beau, car|sa mè- re cri- et tem- pe-|ste, cri- 'et tem- pe-|
w: |||||||||
 F2 z F GG A2 | F2 F2 B2 A2 | d2 d2 c2 d2 | c2 BA B4 | A8 | z2 A2 G2 c2 | c3 B A2 G2 | %33
w: ste, cri' et tem- pe-|st'et se rompt iour|et nuict la tes-||te,|mais ie n'en|com- pte ung nou-|
w: |||||||
 F2 A2 G2 G2 | F2 F2 E2 E2 | F2 A2 B2 c2 | c3 B A2 F2 | G2 G2 F4- | F8 |] %39
w: veau, mais ie n'en|com- pte ung nou-|veau, mais ie n'en|com- * * pte|ung nou- veau.|_|
w: ||||||
V:4
 B,,3 B,, B,,2 | B,,4 F,,2 | B,,2 D,4 | C,4 z2 | C,2 C,2 C,2 |"^b" B,,4 E,2 | F,2 C,4 |1 %7
w: Jay- me myeulx|boi- re'au|pré bon-|ne'eau,|qu'à la ta-|ver- ne|mau- vais|
w: El- le me|faict l'es-|prit di-|vin,|et si n'en|ay pas|beu ung|
[M:2/4] F,,4 :|2[M:2/2] F,,4 z4 || z8 | C,2 F,3 E,D,C, | D,E, F,2 F,,2 z2 | z4 F,2 F,F, | %13
w: vin,|seau,||là iay trou- vé Ca-|the- ri- net- te,|ie la bai-|
w: _||||||
 F,F,F,F, G,4 |[M:3/2] D,8 F,4 | F,8 E,4 | F,8 z4 | z12 | z4 z4 F,4 | F,8 C,4 | C,8 D,4 | %21
w: s'en sa bou- chet- *|te, et|quant i'y|voys,||i'y|voys tout|beau, i'y|
w: ||||||||
 A,,8 B,,4 |[M:2/2] F,,8 | z2 C,2 C,C,A,,A,, | A,,A,, D,2 C,C,A,,A,, | D,4 C,C,A,,A,, | %26
w: voys tout|beau,|car sa mè- re cri-|'et tem- pe- ste, cri- 'et tem-|pe- ste, cri- 'et tem-|
w: |||||
 D,4 C,2 A,,2 | B,,2 B,,2 G,,2 F,,2 | B,,C,D,E, F,2 B,,2 | F,4 G,4 | D,2 D,2 F,2 F,2 | %31
w: pe- ste et|se rompt iour et|nuict _ _ _ _ la|tes- *|te, mais ie n'en|
w: |||||
 C,3 D, E,2 F,2 | C,2 C,2 F,,2 C,2 | D,2 F,2 C,2 C,2 | D,2 D,2 A,,4 | z2 A,,2 G,,2 F,,2 | %36
w: com- * * pte|ung nou- veau, mais|ie n'en com- pte|ung nou- veau,|mais ie n'en|
w: |||||
 C,2 C,2 D,4 | C,4 F,,4- | F,,8 |] %39
w: copte ung nou-|* veau.|_|
w: |||

